src/assets/img/createWalletSuccess/logo.svg

<svg fill="none" height="18" viewBox="0 0 18 18" width="18" xmlns="http://www.w3.org/2000/svg" xmlns:xlink="http://www.w3.org/1999/xlink"><linearGradient id="a" gradientUnits="userSpaceOnUse" x1="2.67607" x2="18.575" y1="15.4267" y2="-.472247"><stop offset="0" stop-color="#5565f7"/><stop offset="1" stop-color="#9ea7fa"/></linearGradient><path clip-rule="evenodd" d="m2.96201 2.3257c3.42212-3.100956 8.65399-3.100932 12.07609.00007l-.7978.79775c-2.9804-2.66253-7.50013-2.662554-10.48053-.00007zm12.71249.63648-.7978.79775c2.6623 2.98038 2.6623 7.49997-.0001 10.48027l.7977.7978c3.1009-3.4221 3.1009-8.65373.0002-12.07582zm-11.91457 11.91452c2.98035 2.6623 7.49987 2.6623 10.48027-.0001l.7977.7978c-3.422 3.1008-8.65366 3.1008-12.07573 0zm-.63641-.6364-.79775.7978c-3.100976-3.4221-3.101026-8.65389-.00015-12.076l.79775.79775c-2.662404 2.9804-2.662354 7.50015.00015 10.48045zm11.48528-8.99816c-.2405-.35814-.5191-.69833-.8356-1.01491-2.0972-2.0971-5.23085-2.52585-7.75181-1.28624l.56496.97854c2.08835-.99212 4.66185-.62401 6.39015 1.10433.2453.24533.4633.50767.6538.78325zm-.528 1.34409.9785-.56496c1.2397 2.52099.811 5.65473-1.2861 7.75193-.3167.3166-.6569.5952-1.0152.8358l-.5649-.9786c.2756-.1905.538-.4085.7834-.6539 1.7284-1.7283 2.0965-4.3019 1.1043-6.39027zm-2.6669 7.49467c-2.08831.9921-4.66174.624-6.39006-1.1044-.24545-.2454-.46347-.5079-.65406-.7836l-.97853.5649c.2406.3583.51925.6987.83596 1.0154 2.09708 2.0971 5.23073 2.5258 7.75169 1.2863zm-8.4731-2.1022.97854-.565c-.99191-2.08829-.62375-4.66159 1.1045-6.38984.24536-.24536.50775-.4633.78337-.65384l-.56496-.97854c-.35819.24056-.69843.51914-1.01504.83576-2.09702 2.09701-2.52582 5.23051-1.28641 7.75146zm9.2412-6.16072c.6644.66442 1.0777 1.48493 1.2397 2.3435l-1.1299.09885c-.1349-.60312-.4371-1.17637-.9064-1.64572-.6188-.6188-1.4182-.94694-2.22853-.98442l-.09885-1.12986c1.13228.0145 2.26008.45371 3.12398 1.31765zm-4.0206-1.23963c-.85851.16203-1.67896.57524-2.34334 1.23963-.86389.86388-1.30311 1.99163-1.31765 3.12382l1.12986-.09885c.03752-.81027.36566-1.60959.98442-2.22834.46931-.46932 1.0425-.77144 1.64557-.90638zm-3.58301 5.26006c.16201.85859.57523 1.67909 1.23966 2.34349.86388.8639 1.99162 1.3031 3.12379 1.3177l-.09885-1.1299c-.81025-.0375-1.60956-.3656-2.2283-.9844-.46937-.4694-.7715-1.0426-.90642-1.64574zm7.60361 2.34349c-.6644.6645-1.485 1.0777-2.34354 1.2397l-.09885-1.1299c.60309-.1349 1.17639-.437 1.64579-.9064.6187-.6188.9469-1.41808.9844-2.22835l1.1299-.09886c-.0146 1.13221-.4538 2.25991-1.3177 3.12381z" fill="url(#a)" fill-rule="evenodd"/></svg>

<svg width="18" height="18" viewBox="0 0 18 18" fill="none" xmlns="http://www.w3.org/2000/svg">
<path fill-rule="evenodd" clip-rule="evenodd" d="M2.96201 2.3257C6.38413 -0.775256 11.616 -0.775232 15.0381 2.32577L14.2403 3.12352C11.2599 0.46099 6.74017 0.460966 3.75977 3.12345L2.96201 2.3257ZM15.6745 2.96218L14.8767 3.75993C17.539 6.74031 17.539 11.2599 14.8766 14.2402L15.6743 15.038C18.7752 11.6159 18.7752 6.38427 15.6745 2.96218ZM3.75993 14.8767C6.74028 17.539 11.2598 17.539 14.2402 14.8766L15.0379 15.6744C11.6159 18.7752 6.38424 18.7752 2.96217 15.6744L3.75993 14.8767ZM3.12352 14.2403L2.32577 15.0381C-0.775206 11.616 -0.775256 6.38421 2.32562 2.9621L3.12337 3.75985C0.460966 6.74025 0.461016 11.26 3.12352 14.2403ZM14.6088 5.24214C14.3683 4.884 14.0897 4.54381 13.7732 4.22723C11.676 2.13013 8.54235 1.70138 6.02139 2.94099L6.58635 3.91953C8.6747 2.92741 11.2482 3.29552 12.9765 5.02386C13.2218 5.26919 13.4398 5.53153 13.6303 5.80711L14.6088 5.24214ZM14.0808 6.58623L15.0593 6.02127C16.299 8.54226 15.8703 11.676 13.7732 13.7732C13.4565 14.0898 13.1163 14.3684 12.758 14.609L12.1931 13.6304C12.4687 13.4399 12.7311 13.2219 12.9765 12.9765C14.7049 11.2482 15.073 8.6746 14.0808 6.58623ZM11.4139 14.0809C9.32559 15.073 6.75216 14.7049 5.02384 12.9765C4.77839 12.7311 4.56037 12.4686 4.36978 12.1929L3.39125 12.7578C3.63185 13.1161 3.9105 13.4565 4.22721 13.7732C6.32429 15.8703 9.45794 16.299 11.9789 15.0595L11.4139 14.0809ZM2.9408 11.9787L3.91934 11.4137C2.92743 9.32541 3.29559 6.75211 5.02384 5.02386C5.2692 4.7785 5.53159 4.56056 5.80721 4.37002L5.24225 3.39148C4.88406 3.63204 4.54382 3.91062 4.22721 4.22724C2.13019 6.32425 1.70139 9.45775 2.9408 11.9787ZM12.182 5.81798C12.8464 6.4824 13.2597 7.30291 13.4217 8.16148L12.2918 8.26033C12.1569 7.65721 11.8547 7.08396 11.3854 6.61461C10.7666 5.99581 9.9672 5.66767 9.15687 5.63019L9.05802 4.50033C10.1903 4.51483 11.3181 4.95404 12.182 5.81798ZM8.1614 4.57835C7.30289 4.74038 6.48244 5.15359 5.81806 5.81798C4.95417 6.68186 4.51495 7.80961 4.50041 8.9418L5.63027 8.84295C5.66779 8.03268 5.99593 7.23336 6.61469 6.61461C7.084 6.14529 7.65719 5.84317 8.26026 5.70823L8.1614 4.57835ZM4.57839 9.83841C4.7404 10.697 5.15362 11.5175 5.81805 12.1819C6.68193 13.0458 7.80967 13.485 8.94184 13.4996L8.84299 12.3697C8.03274 12.3322 7.23343 12.0041 6.61469 11.3853C6.14532 10.9159 5.84319 10.3427 5.70827 9.73956L4.57839 9.83841ZM12.182 12.1819C11.5176 12.8464 10.697 13.2596 9.83846 13.4216L9.73961 12.2917C10.3427 12.1568 10.916 11.8547 11.3854 11.3853C12.0041 10.7665 12.3323 9.96722 12.3698 9.15695L13.4997 9.05809C13.4851 10.1903 13.0459 11.318 12.182 12.1819Z" fill="url(#paint0_linear_2141_68258)"/>
<defs>
<linearGradient id="paint0_linear_2141_68258" x1="2.67607" y1="15.4267" x2="18.575" y2="-0.472247" gradientUnits="userSpaceOnUse">
<stop stop-color="#5565F7"/>
<stop offset="1" stop-color="#9EA7FA"/>
</linearGradient>
</defs>
</svg>
